images/icons/phone.svg

<svg width="13" height="13" viewBox="0 0 13 13" xmlns="http://www.w3.org/2000/svg">
<path d="M2.37145 0.0429688L0.79723 1.61719C-0.0660507 2.48047 -0.253551 3.82422 0.363636 4.87891C1.05114 6.05859 1.61364 6.92969 3.96911 9.28125C6.32067 11.6367 6.96129 11.957 8.12145 12.6367C9.18004 13.2539 10.5199 13.0664 11.3793 12.2031L12.9574 10.6289L9.91051 7.58594L8.67223 8.82422C8.52379 8.75781 8.30114 8.64062 8.04332 8.47656C7.51207 8.13672 6.83239 7.61719 6.23473 7.01562C5.63317 6.41797 5.04723 5.67187 4.64098 5.07031C4.44176 4.77344 4.28161 4.50391 4.19567 4.32812C4.19176 4.32031 4.19176 4.32031 4.18786 4.3125L5.41442 3.08594L2.37145 0.0429688ZM2.37145 1.45703L4.00036 3.08594L3.28551 3.80469C3.13707 3.95312 3.12145 4.11719 3.12536 4.21094C3.12536 4.30078 3.14098 4.36328 3.15661 4.42188C3.19176 4.54297 3.23864 4.64844 3.29723 4.77344C3.41832 5.01562 3.59411 5.30469 3.81286 5.63281C4.25036 6.28125 4.86754 7.06641 5.52379 7.72656C6.18395 8.38281 6.91051 8.9375 7.50817 9.31641C7.80504 9.50781 8.06676 9.65234 8.28942 9.75C8.4027 9.80078 8.50426 9.83984 8.62536 9.86328C8.68395 9.875 8.75036 9.88281 8.8402 9.875C8.93004 9.87109 9.07067 9.83984 9.19567 9.71484L9.91051 9L11.5433 10.6289L10.6722 11.5C10.1293 12.043 9.28942 12.1602 8.62536 11.7734C7.44567 11.082 6.99645 10.8984 4.67223 8.57812C2.35192 6.25391 1.90661 5.53906 1.22692 4.375C0.840199 3.71094 0.957386 2.87109 1.50036 2.32812L2.37145 1.45703Z"/>
</svg>

<svg width="13" height="13" xmlns="http://www.w3.org/2000/svg"><path d="M2.371.043L.797 1.617A2.697 2.697 0 00.364 4.88c.687 1.18 1.25 2.05 3.605 4.402 2.352 2.356 2.992 2.676 4.152 3.356a2.69 2.69 0 003.258-.434l1.578-1.574-3.046-3.043-1.239 1.238a5.178 5.178 0 01-.629-.347c-.53-.34-1.21-.86-1.808-1.461A13.74 13.74 0 014.64 5.07c-.2-.297-.36-.566-.445-.742l-.008-.016 1.226-1.226L2.371.043zm0 1.414l1.63 1.629-.715.719a.53.53 0 00-.16.406c0 .09.015.152.03.21.036.122.083.227.141.352.121.243.297.532.516.86a15.05 15.05 0 001.71 2.094c.661.656 1.388 1.21 1.985 1.59.297.19.559.335.781.433.114.05.215.09.336.113.059.012.125.02.215.012a.534.534 0 00.356-.16L9.91 9l1.632 1.629-.87.871a1.692 1.692 0 01-2.048.273c-1.18-.691-1.629-.875-3.953-3.195-2.32-2.324-2.765-3.039-3.445-4.203A1.692 1.692 0 011.5 2.328l.871-.871z"/></svg>
